artwork/resources/intui/icons/shell/filetree/sceneform-binary_dark.svg

<svg width="16" height="16" viewBox="0 0 16 16" fill="none" xmlns="http://www.w3.org/2000/svg"><g clip-path="url(#clip0_3_853)"><path fill-rule="evenodd" clip-rule="evenodd" d="M8 7.5l6.5-3v7.02L8 14.5v-7zM8 7.5l-6.5-3v7.02L8 14.5v-7z" fill="#25324D"/><path fill-rule="evenodd" clip-rule="evenodd" d="M14.5 4.5L8 1.5l-6.5 3 6.5 3 6.5-3z" fill="#25324D"/><path d="M8 7.5l6.5-3M8 7.5v7m0-7l-6.5-3m13 0v7.02L8 14.5m6.5-10L8 1.5l-6.5 3m6.5 10l-6.5-2.98V4.5" stroke="#548AF7" stroke-linecap="round" stroke-linejoin="round"/></g><defs><clipPath id="clip0_3_853"><path fill="#fff" d="M0 0h16v16H0z"/></clipPath></defs></svg>

<svg width="16" height="16" viewBox="0 0 16 16" fill="none" xmlns="http://www.w3.org/2000/svg">
<g clip-path="url(#clip0_3_853)">
<path fill-rule="evenodd" clip-rule="evenodd" d="M8 7.5L14.5 4.5V11.5199L8 14.5V7.5Z" fill="#25324D"/>
<path fill-rule="evenodd" clip-rule="evenodd" d="M8 7.5L1.5 4.5V11.5199L8 14.5V7.5Z" fill="#25324D"/>
<path fill-rule="evenodd" clip-rule="evenodd" d="M14.5 4.5L7.99998 1.5L1.5 4.5L8 7.5L14.5 4.5Z" fill="#25324D"/>
<path d="M8 7.5L14.5 4.5M8 7.5V14.5M8 7.5L1.5 4.5M14.5 4.5V11.5199L8 14.5M14.5 4.5L7.99998 1.5L1.5 4.5M8 14.5L1.5 11.5199V4.5" stroke="#548AF7" stroke-linecap="round" stroke-linejoin="round"/>
</g>
<defs>
<clipPath id="clip0_3_853">
<rect width="16" height="16" fill="white"/>
</clipPath>
</defs>
</svg>
